X:1
T:Till I Go Down To Bimini
M:4/4
L:1/4
K:C
 C4-| A,2 G, A,| D D2 A,| B, A, G,2| C D E C| D E F D| E C2 A,| B, A, G,2|\
